logo.svg

<?xml version="1.0" encoding="UTF-8"?>
<svg overflow="visible" version="1.1" viewBox="0 0 1700 450"
  xmlns="http://www.w3.org/2000/svg">
  <g transform="translate(250 100)">
    <defs>
      <linearGradient id="a" x1="5" x2="95" y1="95" y2="5" gradientUnits="userSpaceOnUse">
        <stop stop-color="#aad1fd" offset=".05"/>
        <stop stop-color="#2d8dfb" offset=".95"/>
      </linearGradient>
    </defs>
    <g transform="scale(2)">
      <g transform="translate(-10) scale(1.0884)" fill="url(#a)" light-content="false" non-strokable="false">
        <path d="M50 0C35.5 0 21.9 3.6 10 10v20c11.9 6.4 25.5 10 40 10s28.1-3.6 40-10V10C78.1 3.6 64.5 0 50 0zM10 40v20c11.9 6.4 25.5 10 40 10s28.1-3.6 40-10V40c-11.9 6.4-25.5 10-40 10s-28.1-3.6-40-10zm0 30v20c11.9 6.4 25.5 10 40 10s28.1-3.6 40-10V70c-11.9 6.4-25.5 10-40 10s-28.1-3.6-40-10z"></path>
      </g>
      <g class="text" transform="translate(345.4 71.73) scale(1)" fill="#363636" light-content="false">
        <path d="m-219.03-0.54c0.26 0.36 0.67 0.54 1.23 0.54h14.52c5.44 0 10.19-1.07 14.25-3.21s7.19-5.17 9.39-9.09 3.3-8.5 3.3-13.74c0-3.68-0.83-6.91-2.49-9.69s-4.13-4.94-7.41-6.48-7.28-2.31-12-2.31h-13.86c-0.52 0-0.86 0.06-1.02 0.18s-0.28 0.4-0.36 0.84l-5.82 41.52c-0.08 0.6 0.01 1.08 0.27 1.44zm17.13-7.92h-3.36c-0.52 0-0.78-0.26-0.78-0.78v-0.3l3.48-25.38c0.08-0.4 0.21-0.69 0.39-0.87s0.45-0.27 0.81-0.27h3.54c2.84 0 5.03 0.78 6.57 2.34s2.31 3.9 2.31 7.02c0 5.48-1.08 9.89-3.24 13.23s-5.4 5.01-9.72 5.01zm32.43 18.06c0.42 0.2 1.21 0.3 2.37 0.3 2.92 0 5.32-0.3 7.2-0.9s3.59-1.69 5.13-3.27 3.17-3.91 4.89-6.99l16.14-29.22c0.2-0.32 0.3-0.6 0.3-0.84 0-0.32-0.24-0.48-0.72-0.48h-6c-0.68 0-1.24 0.46-1.68 1.38l-7.86 15.42c-0.32 0.56-0.58 0.84-0.78 0.84s-0.36-0.24-0.48-0.72l-3.6-16.08c-0.12-0.56-0.52-0.84-1.2-0.84h-9.66c-0.72 0-1.08 0.36-1.08 1.08 0 0.12 0.04 0.38 0.12 0.78l7.68 28.32c0.04 0.12 0.06 0.3 0.06 0.54 0 0.84-0.42 1.6-1.26 2.28s-1.88 1.02-3.12 1.02h-4.14c-0.64 0-1.14 0.09-1.5 0.27s-0.56 0.39-0.6 0.63l-0.72 5.4c-0.08 0.52 0.09 0.88 0.51 1.08zm41.88-10.02c0.14 0.28 0.41 0.42 0.81 0.42h7.86c0.68 0 1.14-0.07 1.38-0.21s0.4-0.49 0.48-1.05l2.88-19.92c1.04-1.2 2.06-2.1 3.06-2.7s2.08-0.9 3.24-0.9c1.96 0 2.94 0.82 2.94 2.46l-0.12 1.02-2.76 19.62c-0.04 0.16-0.06 0.4-0.06 0.72 0 0.64 0.3 0.96 0.9 0.96h8.1c0.6 0 1.02-0.09 1.26-0.27s0.38-0.53 0.42-1.05l3-21.18c0.08-0.8 0.12-1.36 0.12-1.68 0-2.48-0.77-4.47-2.31-5.97s-3.63-2.25-6.27-2.25c-3.36 0-6.74 1.46-10.14 4.38-0.32 0.24-0.5 0.36-0.54 0.36-0.08 0-0.12-0.08-0.12-0.24v-0.18l0.42-2.88c0.04-0.32 0.02-0.54-0.06-0.66s-0.26-0.18-0.54-0.18h-9c-0.32 0-0.54 0.06-0.66 0.18s-0.22 0.38-0.3 0.78l-4.14 29.16c-0.04 0.56 0.01 0.98 0.15 1.26zm55.41 0.21c1.64-0.54 3-1.35 4.08-2.43 0.48-0.52 0.84-0.78 1.08-0.78 0.2 0 0.3 0.18 0.3 0.54v1.14c0.08 0.64 0.19 1.09 0.33 1.35s0.43 0.39 0.87 0.39h7.2c0.52 0 0.84-0.05 0.96-0.15s0.22-0.43 0.3-0.99l2.94-21c0.08-0.8 0.12-1.38 0.12-1.74 0-5.68-4.36-8.52-13.08-8.52-7.76 0-12.88 2.16-15.36 6.48-0.2 0.44-0.3 0.88-0.3 1.32 0 0.56 0.24 0.88 0.72 0.96l6.78 1.44c0.16 0.04 0.36 0.06 0.6 0.06 0.32 0 0.58-0.16 0.78-0.48 1.28-2.2 3.36-3.3 6.24-3.3 2.28 0 3.42 0.96 3.42 2.88 0 0.16-0.04 0.48-0.12 0.96l-0.18 1.14c-0.12 0.76-0.56 1.14-1.32 1.14l-1.2 0.06c-3.12 0.04-6.15 0.48-9.09 1.32s-5.39 2.18-7.35 4.02-2.94 4.2-2.94 7.08c0 2.32 0.79 4.22 2.37 5.7s3.77 2.22 6.57 2.22c1.88 0 3.64-0.27 5.28-0.81zm6.72-13.89-0.48 3.54c-0.12 0.88-0.8 1.84-2.04 2.88-0.48 0.44-1.13 0.79-1.95 1.05s-1.71 0.39-2.67 0.39c-1 0-1.79-0.26-2.37-0.78s-0.87-1.18-0.87-1.98c0-1.84 0.9-3.22 2.7-4.14s3.7-1.44 5.7-1.56l1.44-0.12c0.4-0.04 0.6 0.02 0.6 0.18 0 0.2-0.02 0.38-0.06 0.54zm20.13 13.62c0.26 0.32 0.63 0.48 1.11 0.48h7.5c0.64 0 1.07-0.07 1.29-0.21s0.37-0.49 0.45-1.05l2.88-19.92c2.04-2.4 4.12-3.6 6.24-3.6 1.84 0 2.76 0.8 2.76 2.4 0 0.32-0.02 0.58-0.06 0.78l-2.76 19.92c-0.08 0.52 0 0.93 0.24 1.23s0.58 0.45 1.02 0.45h7.74c0.56 0 0.94-0.09 1.14-0.27s0.34-0.53 0.42-1.05l2.64-18.84c0.04-0.48 0.36-1.06 0.96-1.74 0.76-0.84 1.62-1.53 2.58-2.07s1.94-0.81 2.94-0.81c1.88 0 2.82 0.82 2.82 2.46l-0.12 1.2-2.76 19.44c-0.08 0.52-0.01 0.93 0.21 1.23s0.57 0.45 1.05 0.45h7.74c0.56 0 0.95-0.09 1.17-0.27s0.37-0.53 0.45-1.05l2.94-20.88c0.08-0.48 0.12-1.12 0.12-1.92 0-2.56-0.75-4.58-2.25-6.06s-3.53-2.22-6.09-2.22c-1.68 0-3.5 0.48-5.46 1.44s-3.72 2.16-5.28 3.6c-0.52 0.44-0.86 0.66-1.02 0.66-0.12 0-0.2-0.08-0.24-0.24-0.44-1.72-1.33-3.07-2.67-4.05s-3.03-1.47-5.07-1.47c-3.08 0-6.48 1.46-10.2 4.38-0.32 0.2-0.48 0.16-0.48-0.12v-0.18l0.3-2.34c0.04-0.16 0.06-0.34 0.06-0.54 0-0.36-0.2-0.54-0.6-0.54h-8.94c-0.32 0-0.54 0.06-0.66 0.18s-0.22 0.38-0.3 0.78l-4.14 29.16c-0.04 0.48 0.07 0.88 0.33 1.2zm68.61-0.69c2.2 1.18 4.76 1.77 7.68 1.77 3.44 0 6.57-0.81 9.39-2.43s5.04-3.84 6.66-6.66 2.43-5.99 2.43-9.51c0-2.8-0.59-5.29-1.77-7.47s-2.87-3.88-5.07-5.1-4.78-1.83-7.74-1.83c-3.32 0-6.39 0.8-9.21 2.4s-5.07 3.83-6.75 6.69-2.52 6.11-2.52 9.75c0 2.8 0.6 5.27 1.8 7.41s2.9 3.8 5.1 4.98zm11.85-6.75c-1.18 1.04-2.51 1.56-3.99 1.56-2.8 0-4.2-1.8-4.2-5.4 0-2.96 0.35-5.49 1.05-7.59s1.64-3.68 2.82-4.74 2.49-1.59 3.93-1.59c2.8 0 4.2 1.84 4.2 5.52 0 2.96-0.34 5.48-1.02 7.56s-1.61 3.64-2.79 4.68zm56.73-8.52h8.58c3.48 0 6.6-0.62 9.36-1.86s4.93-3.03 6.51-5.37 2.37-5.11 2.37-8.31c0-2.68-0.7-4.97-2.1-6.87s-3.32-3.32-5.76-4.26-5.18-1.41-8.22-1.41h-18.96c-0.36 0-0.59 0.05-0.69 0.15s-0.19 0.37-0.27 0.81l-5.94 41.88c-0.04 0.16-0.06 0.38-0.06 0.66 0 0.68 0.34 1.02 1.02 1.02h9.42c0.64 0 1.07-0.07 1.29-0.21s0.35-0.49 0.39-1.05l2.04-14.22c0.04-0.32 0.13-0.56 0.27-0.72s0.39-0.24 0.75-0.24zm13.08-18.48c0.92 0.68 1.38 1.68 1.38 3 0 1.84-0.66 3.44-1.98 4.8s-2.94 2.04-4.86 2.04h-6.54c-0.24 0-0.41-0.04-0.51-0.12s-0.15-0.24-0.15-0.48v-0.3l1.2-8.7c0.08-0.44 0.21-0.76 0.39-0.96s0.49-0.3 0.93-0.3h6.3c1.64 0 2.92 0.34 3.84 1.02zm31.08 33.66 5.94-42.06c0.12-0.8-0.12-1.2-0.72-1.2h-8.82c-0.32 0-0.55 0.06-0.69 0.18s-0.23 0.38-0.27 0.78l-6.12 41.88c-0.08 0.48 0.01 0.88 0.27 1.2s0.65 0.48 1.17 0.48h7.5c0.64 0 1.08-0.07 1.32-0.21s0.38-0.49 0.42-1.05zm14.79-0.39c1.5 1.5 3.47 2.25 5.91 2.25 1.88 0 3.66-0.34 5.34-1.02s3.32-1.76 4.92-3.24c0.32-0.24 0.54-0.36 0.66-0.36 0.16 0 0.24 0.08 0.24 0.24v0.12l-0.42 2.76c-0.08 0.6 0.24 0.9 0.96 0.9h8.34c0.36 0 0.59-0.05 0.69-0.15s0.19-0.35 0.27-0.75l4.32-29.16c0.08-0.52-0.01-0.94-0.27-1.26s-0.65-0.48-1.17-0.48h-7.56c-0.64 0-1.07 0.08-1.29 0.24s-0.37 0.5-0.45 1.02l-3 20.4c-2.12 2.12-4.18 3.18-6.18 3.18-1.84 0-2.76-0.86-2.76-2.58 0-0.36 0.02-0.66 0.06-0.9l2.82-19.62c0.08-0.52 0-0.94-0.24-1.26s-0.58-0.48-1.02-0.48h-7.74c-0.6 0-1.01 0.09-1.23 0.27s-0.35 0.53-0.39 1.05l-2.94 20.88c-0.08 0.8-0.12 1.44-0.12 1.92 0 2.52 0.75 4.53 2.25 6.03zm43.23 0.3c2.44 1.3 5.58 1.95 9.42 1.95 2.6 0 5.07-0.42 7.41-1.26s4.24-2.13 5.7-3.87 2.19-3.87 2.19-6.39c0-2.12-0.7-3.97-2.1-5.55s-3.54-2.69-6.42-3.33l-6.36-1.5c-0.96-0.24-1.6-0.51-1.92-0.81s-0.48-0.71-0.48-1.23c0-0.88 0.53-1.56 1.59-2.04s2.31-0.72 3.75-0.72c1.36 0 2.54 0.24 3.54 0.72s1.8 1.08 2.4 1.8c0.52 0.64 0.96 0.96 1.32 0.96 0.2 0 0.38-0.04 0.54-0.12l4.5-2.04c0.4-0.16 0.6-0.42 0.6-0.78 0-0.2-0.08-0.42-0.24-0.66-1.12-1.8-2.72-3.28-4.8-4.44s-4.64-1.74-7.68-1.74c-2.72 0-5.24 0.45-7.56 1.35s-4.17 2.22-5.55 3.96-2.07 3.83-2.07 6.27c0 2.16 0.68 3.88 2.04 5.16s3.42 2.24 6.18 2.88l5.94 1.44c1.16 0.28 1.98 0.6 2.46 0.96s0.72 0.8 0.72 1.32c0 1.24-0.64 2.06-1.92 2.46s-2.66 0.6-4.14 0.6c-2 0-3.54-0.32-4.62-0.96s-1.94-1.5-2.58-2.58c-0.36-0.52-0.74-0.78-1.14-0.78-0.24 0-0.56 0.1-0.96 0.3l-4.44 2.1c-0.44 0.2-0.66 0.48-0.66 0.84 0 0.16 0.06 0.4 0.18 0.72 1 2.04 2.72 3.71 5.16 5.01z"></path>
      </g>
    </g>
  </g>
</svg>

<svg xmlns="http://www.w3.org/2000/svg" version="1.1" xmlns:xlink="http://www.w3.org/1999/xlink"
  width="1700" height="450" overflow="visible">
  <g opacity="1" transform="translate(250, 100)">
    <defs>
      <linearGradient id="bluefade" gradientUnits="userSpaceOnUse" x1="5"
        y1="95" x2="95" y2="5">
        <stop stop-color="#aad1fd" offset="0.05"></stop>
        <stop stop-color="#2d8dfb" offset="0.95"></stop>
      </linearGradient>
    </defs>
    <g transform="scale(2)" opacity="1">
      <g transform="translate(-10, 0) scale(1.0884)" light-content="false"
        non-strokable="false" fill="url(#bluefade)">
        <path
          d="M50 0C35.5 0 21.9 3.6 10 10v20c11.9 6.4 25.5 10 40 10s28.1-3.6 40-10V10C78.1 3.6 64.5 0 50 0zM10 40v20c11.9 6.4 25.5 10 40 10s28.1-3.6 40-10V40c-11.9 6.4-25.5 10-40 10s-28.1-3.6-40-10zm0 30v20c11.9 6.4 25.5 10 40 10s28.1-3.6 40-10V70c-11.9 6.4-25.5 10-40 10s-28.1-3.6-40-10z">
        </path>
      </g>
      <g class="text" transform="translate(345.40023181152344, 71.73000045776368) scale(1)"
        light-content="false" fill="#363636">
        <path
          d="M-219.03 -0.54C-218.77 -0.18 -218.36 0 -217.8 0L-203.28 0C-197.84 0 -193.09 -1.07 -189.03 -3.21C-184.97 -5.35 -181.84 -8.38 -179.64 -12.3C-177.44 -16.22 -176.34 -20.8 -176.34 -26.04C-176.34 -29.72 -177.17 -32.95 -178.83 -35.73C-180.49 -38.51 -182.96 -40.67 -186.24 -42.21C-189.52 -43.75 -193.52 -44.52 -198.24 -44.52L-212.1 -44.52C-212.62 -44.52 -212.96 -44.46 -213.12 -44.34C-213.28 -44.22 -213.4 -43.94 -213.48 -43.5L-219.3 -1.98C-219.38 -1.38 -219.29 -0.9 -219.03 -0.54ZM-201.9 -8.46L-205.26 -8.46C-205.78 -8.46 -206.04 -8.72 -206.04 -9.24L-206.04 -9.54L-202.56 -34.92C-202.48 -35.32 -202.35 -35.61 -202.17 -35.79C-201.99 -35.97 -201.72 -36.06 -201.36 -36.06L-197.82 -36.06C-194.98 -36.06 -192.79 -35.28 -191.25 -33.72C-189.71 -32.16 -188.94 -29.82 -188.94 -26.7C-188.94 -21.22 -190.02 -16.81 -192.18 -13.47C-194.34 -10.13 -197.58 -8.46 -201.9 -8.46Z M-169.47 9.6C-169.05 9.8 -168.26 9.9 -167.1 9.9C-164.18 9.9 -161.78 9.6 -159.9 9C-158.02 8.4 -156.31 7.31 -154.77 5.73C-153.23 4.15 -151.6 1.82 -149.88 -1.26L-133.74 -30.48C-133.54 -30.8 -133.44 -31.08 -133.44 -31.32C-133.44 -31.64 -133.68 -31.8 -134.16 -31.8L-140.16 -31.8C-140.84 -31.8 -141.4 -31.34 -141.84 -30.42L-149.7 -15C-150.02 -14.44 -150.28 -14.16 -150.48 -14.16C-150.68 -14.16 -150.84 -14.4 -150.96 -14.88L-154.56 -30.96C-154.68 -31.52 -155.08 -31.8 -155.76 -31.8L-165.42 -31.8C-166.14 -31.8 -166.5 -31.44 -166.5 -30.72C-166.5 -30.6 -166.46 -30.34 -166.38 -29.94L-158.7 -1.62C-158.66 -1.5 -158.64 -1.32 -158.64 -1.08C-158.64 -0.24 -159.06 0.52 -159.9 1.2C-160.74 1.88 -161.78 2.22 -163.02 2.22L-167.16 2.22C-167.8 2.22 -168.3 2.31 -168.66 2.49C-169.02 2.67 -169.22 2.88 -169.26 3.12L-169.98 8.52C-170.06 9.04 -169.89 9.4 -169.47 9.6Z M-127.59 -0.42C-127.45 -0.14 -127.18 0 -126.78 0L-118.92 0C-118.24 0 -117.78 -0.07 -117.54 -0.21C-117.3 -0.35 -117.14 -0.7 -117.06 -1.26L-114.18 -21.18C-113.14 -22.38 -112.12 -23.28 -111.12 -23.88C-110.12 -24.48 -109.04 -24.78 -107.88 -24.78C-105.92 -24.78 -104.94 -23.96 -104.94 -22.32L-105.06 -21.3L-107.82 -1.68C-107.86 -1.52 -107.88 -1.28 -107.88 -0.96C-107.88 -0.32 -107.58 0 -106.98 0L-98.88 0C-98.28 0 -97.86 -0.09 -97.62 -0.27C-97.38 -0.45 -97.24 -0.8 -97.2 -1.32L-94.2 -22.5C-94.12 -23.3 -94.08 -23.86 -94.08 -24.18C-94.08 -26.66 -94.85 -28.65 -96.39 -30.15C-97.93 -31.65 -100.02 -32.4 -102.66 -32.4C-106.02 -32.4 -109.4 -30.94 -112.8 -28.02C-113.12 -27.78 -113.3 -27.66 -113.34 -27.66C-113.42 -27.66 -113.46 -27.74 -113.46 -27.9L-113.46 -28.08L-113.04 -30.96C-113 -31.28 -113.02 -31.5 -113.1 -31.62C-113.18 -31.74 -113.36 -31.8 -113.64 -31.8L-122.64 -31.8C-122.96 -31.8 -123.18 -31.74 -123.3 -31.62C-123.42 -31.5 -123.52 -31.24 -123.6 -30.84L-127.74 -1.68C-127.78 -1.12 -127.73 -0.7 -127.59 -0.42Z M-72.18 -0.21C-70.54 -0.75 -69.18 -1.56 -68.1 -2.64C-67.62 -3.16 -67.26 -3.42 -67.02 -3.42C-66.82 -3.42 -66.72 -3.24 -66.72 -2.88L-66.72 -1.74C-66.64 -1.1 -66.53 -0.65 -66.39 -0.39C-66.25 -0.13 -65.96 0 -65.52 0L-58.32 0C-57.8 0 -57.48 -0.05 -57.36 -0.15C-57.24 -0.25 -57.14 -0.58 -57.06 -1.14L-54.12 -22.14C-54.04 -22.94 -54 -23.52 -54 -23.88C-54 -29.56 -58.36 -32.4 -67.08 -32.4C-74.84 -32.4 -79.96 -30.24 -82.44 -25.92C-82.64 -25.48 -82.74 -25.04 -82.74 -24.6C-82.74 -24.04 -82.5 -23.72 -82.02 -23.64L-75.24 -22.2C-75.08 -22.16 -74.88 -22.14 -74.64 -22.14C-74.32 -22.14 -74.06 -22.3 -73.86 -22.62C-72.58 -24.82 -70.5 -25.92 -67.62 -25.92C-65.34 -25.92 -64.2 -24.96 -64.2 -23.04C-64.2 -22.88 -64.24 -22.56 -64.32 -22.08L-64.5 -20.94C-64.62 -20.18 -65.06 -19.8 -65.82 -19.8L-67.02 -19.74C-70.14 -19.7 -73.17 -19.26 -76.11 -18.42C-79.05 -17.58 -81.5 -16.24 -83.46 -14.4C-85.42 -12.56 -86.4 -10.2 -86.4 -7.32C-86.4 -5 -85.61 -3.1 -84.03 -1.62C-82.45 -0.14 -80.26 0.6 -77.46 0.6C-75.58 0.6 -73.82 0.33 -72.18 -0.21ZM-65.46 -14.1L-65.94 -10.56C-66.06 -9.68 -66.74 -8.72 -67.98 -7.68C-68.46 -7.24 -69.11 -6.89 -69.93 -6.63C-70.75 -6.37 -71.64 -6.24 -72.6 -6.24C-73.6 -6.24 -74.39 -6.5 -74.97 -7.02C-75.55 -7.54 -75.84 -8.2 -75.84 -9C-75.84 -10.84 -74.94 -12.22 -73.14 -13.14C-71.34 -14.06 -69.44 -14.58 -67.44 -14.7L-66 -14.82C-65.6 -14.86 -65.4 -14.8 -65.4 -14.64C-65.4 -14.44 -65.42 -14.26 -65.46 -14.1Z M-45.33 -0.48C-45.07 -0.16 -44.7 0 -44.22 0L-36.72 0C-36.08 0 -35.65 -0.07 -35.43 -0.21C-35.21 -0.35 -35.06 -0.7 -34.98 -1.26L-32.1 -21.18C-30.06 -23.58 -27.98 -24.78 -25.86 -24.78C-24.02 -24.78 -23.1 -23.98 -23.1 -22.38C-23.1 -22.06 -23.12 -21.8 -23.16 -21.6L-25.92 -1.68C-26 -1.16 -25.92 -0.75 -25.68 -0.45C-25.44 -0.15 -25.1 0 -24.66 0L-16.92 0C-16.36 0 -15.98 -0.09 -15.78 -0.27C-15.58 -0.45 -15.44 -0.8 -15.36 -1.32L-12.72 -20.16C-12.68 -20.64 -12.36 -21.22 -11.76 -21.9C-11 -22.74 -10.14 -23.43 -9.18 -23.97C-8.22 -24.51 -7.24 -24.78 -6.24 -24.78C-4.36 -24.78 -3.42 -23.96 -3.42 -22.32L-3.54 -21.12L-6.3 -1.68C-6.38 -1.16 -6.31 -0.75 -6.09 -0.45C-5.87 -0.15 -5.52 0 -5.04 0L2.7 0C3.26 0 3.65 -0.09 3.87 -0.27C4.09 -0.45 4.24 -0.8 4.32 -1.32L7.26 -22.2C7.34 -22.68 7.38 -23.32 7.38 -24.12C7.38 -26.68 6.63 -28.7 5.13 -30.18C3.63 -31.66 1.6 -32.4 -0.96 -32.4C-2.64 -32.4 -4.46 -31.92 -6.42 -30.96C-8.38 -30 -10.14 -28.8 -11.7 -27.36C-12.22 -26.92 -12.56 -26.7 -12.72 -26.7C-12.84 -26.7 -12.92 -26.78 -12.96 -26.94C-13.4 -28.66 -14.29 -30.01 -15.63 -30.99C-16.97 -31.97 -18.66 -32.46 -20.7 -32.46C-23.78 -32.46 -27.18 -31 -30.9 -28.08C-31.22 -27.88 -31.38 -27.92 -31.38 -28.2L-31.38 -28.38L-31.08 -30.72C-31.04 -30.88 -31.02 -31.06 -31.02 -31.26C-31.02 -31.62 -31.22 -31.8 -31.62 -31.8L-40.56 -31.8C-40.88 -31.8 -41.1 -31.74 -41.22 -31.62C-41.34 -31.5 -41.44 -31.24 -41.52 -30.84L-45.66 -1.68C-45.7 -1.2 -45.59 -0.8 -45.33 -0.48Z M23.28 -1.17C25.48 0.01 28.04 0.6 30.96 0.6C34.4 0.6 37.53 -0.21 40.35 -1.83C43.17 -3.45 45.39 -5.67 47.01 -8.49C48.63 -11.31 49.44 -14.48 49.44 -18C49.44 -20.8 48.85 -23.29 47.67 -25.47C46.49 -27.65 44.8 -29.35 42.6 -30.57C40.4 -31.79 37.82 -32.4 34.86 -32.4C31.54 -32.4 28.47 -31.6 25.65 -30C22.83 -28.4 20.58 -26.17 18.9 -23.31C17.22 -20.45 16.38 -17.2 16.38 -13.56C16.38 -10.76 16.98 -8.29 18.18 -6.15C19.38 -4.01 21.08 -2.35 23.28 -1.17ZM35.13 -7.92C33.95 -6.88 32.62 -6.36 31.14 -6.36C28.34 -6.36 26.94 -8.16 26.94 -11.76C26.94 -14.72 27.29 -17.25 27.99 -19.35C28.69 -21.45 29.63 -23.03 30.81 -24.09C31.99 -25.15 33.3 -25.68 34.74 -25.68C37.54 -25.68 38.94 -23.84 38.94 -20.16C38.94 -17.2 38.6 -14.68 37.92 -12.6C37.24 -10.52 36.31 -8.96 35.13 -7.92Z M91.86 -16.44L100.44 -16.44C103.92 -16.44 107.04 -17.06 109.8 -18.3C112.56 -19.54 114.73 -21.33 116.31 -23.67C117.89 -26.01 118.68 -28.78 118.68 -31.98C118.68 -34.66 117.98 -36.95 116.58 -38.85C115.18 -40.75 113.26 -42.17 110.82 -43.11C108.38 -44.05 105.64 -44.52 102.6 -44.52L83.64 -44.52C83.28 -44.52 83.05 -44.47 82.95 -44.37C82.85 -44.27 82.76 -44 82.68 -43.56L76.74 -1.68C76.7 -1.52 76.68 -1.3 76.68 -1.02C76.68 -0.34 77.02 0 77.7 0L87.12 0C87.76 0 88.19 -0.07 88.41 -0.21C88.63 -0.35 88.76 -0.7 88.8 -1.26L90.84 -15.48C90.88 -15.8 90.97 -16.04 91.11 -16.2C91.25 -16.36 91.5 -16.44 91.86 -16.44ZM104.94 -34.92C105.86 -34.24 106.32 -33.24 106.32 -31.92C106.32 -30.08 105.66 -28.48 104.34 -27.12C103.02 -25.76 101.4 -25.08 99.48 -25.08L92.94 -25.08C92.7 -25.08 92.53 -25.12 92.43 -25.2C92.33 -25.28 92.28 -25.44 92.28 -25.68L92.28 -25.98L93.48 -34.68C93.56 -35.12 93.69 -35.44 93.87 -35.64C94.05 -35.84 94.36 -35.94 94.8 -35.94L101.1 -35.94C102.74 -35.94 104.02 -35.6 104.94 -34.92Z M136.02 -1.26L141.96 -43.32C142.08 -44.12 141.84 -44.52 141.24 -44.52L132.42 -44.52C132.1 -44.52 131.87 -44.46 131.73 -44.34C131.59 -44.22 131.5 -43.96 131.46 -43.56L125.34 -1.68C125.26 -1.2 125.35 -0.8 125.61 -0.48C125.87 -0.16 126.26 0 126.78 0L134.28 0C134.92 0 135.36 -0.07 135.6 -0.21C135.84 -0.35 135.98 -0.7 136.02 -1.26Z M150.81 -1.65C152.31 -0.15 154.28 0.6 156.72 0.6C158.6 0.6 160.38 0.26 162.06 -0.42C163.74 -1.1 165.38 -2.18 166.98 -3.66C167.3 -3.9 167.52 -4.02 167.64 -4.02C167.8 -4.02 167.88 -3.94 167.88 -3.78L167.88 -3.66L167.46 -0.9C167.38 -0.3 167.7 0 168.42 0L176.76 0C177.12 0 177.35 -0.05 177.45 -0.15C177.55 -0.25 177.64 -0.5 177.72 -0.9L182.04 -30.06C182.12 -30.58 182.03 -31 181.77 -31.32C181.51 -31.64 181.12 -31.8 180.6 -31.8L173.04 -31.8C172.4 -31.8 171.97 -31.72 171.75 -31.56C171.53 -31.4 171.38 -31.06 171.3 -30.54L168.3 -10.14C166.18 -8.02 164.12 -6.96 162.12 -6.96C160.28 -6.96 159.36 -7.82 159.36 -9.54C159.36 -9.9 159.38 -10.2 159.42 -10.44L162.24 -30.06C162.32 -30.58 162.24 -31 162 -31.32C161.76 -31.64 161.42 -31.8 160.98 -31.8L153.24 -31.8C152.64 -31.8 152.23 -31.71 152.01 -31.53C151.79 -31.35 151.66 -31 151.62 -30.48L148.68 -9.6C148.6 -8.8 148.56 -8.16 148.56 -7.68C148.56 -5.16 149.31 -3.15 150.81 -1.65Z M194.04 -1.35C196.48 -0.05 199.62 0.6 203.46 0.6C206.06 0.6 208.53 0.18 210.87 -0.66C213.21 -1.5 215.11 -2.79 216.57 -4.53C218.03 -6.27 218.76 -8.4 218.76 -10.92C218.76 -13.04 218.06 -14.89 216.66 -16.47C215.26 -18.05 213.12 -19.16 210.24 -19.8L203.88 -21.3C202.92 -21.54 202.28 -21.81 201.96 -22.11C201.64 -22.41 201.48 -22.82 201.48 -23.34C201.48 -24.22 202.01 -24.9 203.07 -25.38C204.13 -25.86 205.38 -26.1 206.82 -26.1C208.18 -26.1 209.36 -25.86 210.36 -25.38C211.36 -24.9 212.16 -24.3 212.76 -23.58C213.28 -22.94 213.72 -22.62 214.08 -22.62C214.28 -22.62 214.46 -22.66 214.62 -22.74L219.12 -24.78C219.52 -24.94 219.72 -25.2 219.72 -25.56C219.72 -25.76 219.64 -25.98 219.48 -26.22C218.36 -28.02 216.76 -29.5 214.68 -30.66C212.6 -31.82 210.04 -32.4 207 -32.4C204.28 -32.4 201.76 -31.95 199.44 -31.05C197.12 -30.15 195.27 -28.83 193.89 -27.09C192.51 -25.35 191.82 -23.26 191.82 -20.82C191.82 -18.66 192.5 -16.94 193.86 -15.66C195.22 -14.38 197.28 -13.42 200.04 -12.78L205.98 -11.34C207.14 -11.06 207.96 -10.74 208.44 -10.38C208.92 -10.02 209.16 -9.58 209.16 -9.06C209.16 -7.82 208.52 -7 207.24 -6.6C205.96 -6.2 204.58 -6 203.1 -6C201.1 -6 199.56 -6.32 198.48 -6.96C197.4 -7.6 196.54 -8.46 195.9 -9.54C195.54 -10.06 195.16 -10.32 194.76 -10.32C194.52 -10.32 194.2 -10.22 193.8 -10.02L189.36 -7.92C188.92 -7.72 188.7 -7.44 188.7 -7.08C188.7 -6.92 188.76 -6.68 188.88 -6.36C189.88 -4.32 191.6 -2.65 194.04 -1.35Z">
        </path>
      </g>
    </g>
  </g>
</svg>
